img/checkbox-icon.svg

<svg width="14" height="11" viewBox="0 0 14 11" fill="none" xmlns="http://www.w3.org/2000/svg">
<path fill-rule="evenodd" clip-rule="evenodd" d="M4.32199 8.88966L1.42256 5.85427C1.09669 5.51312 0.570278 5.51312 0.244405 5.85427C-0.0814682 6.19543 -0.0814682 6.74652 0.244405 7.08767L3.73709 10.7441C4.06297 11.0853 4.58938 11.0853 4.91525 10.7441L13.7556 1.48926C14.0815 1.14811 14.0815 0.597018 13.7556 0.255865C13.4297 -0.0852883 12.9033 -0.0852883 12.5774 0.255865L4.32199 8.88966Z" fill="white"/>
</svg>

<svg width="14" height="11" fill="none" xmlns="http://www.w3.org/2000/svg"><path fill-rule="evenodd" clip-rule="evenodd" d="M4.322 8.89l-2.9-3.036a.806.806 0 0 0-1.178 0 .9.9 0 0 0 0 1.234l3.493 3.656a.806.806 0 0 0 1.178 0l8.84-9.255a.9.9 0 0 0 0-1.233.806.806 0 0 0-1.178 0L4.322 8.89z" fill="#fff"/></svg>
